16/places/user-trash.svg

<?xml version="1.0" encoding="UTF-8" standalone="no"?>
<svg
   xmlns:dc="http://purl.org/dc/elements/1.1/"
   xmlns:cc="http://creativecommons.org/ns#"
   xmlns:rdf="http://www.w3.org/1999/02/22-rdf-syntax-ns#"
   xmlns:svg="http://www.w3.org/2000/svg"
   xmlns="http://www.w3.org/2000/svg"
   xmlns:sodipodi="http://sodipodi.sourceforge.net/DTD/sodipodi-0.dtd"
   xmlns:inkscape="http://www.inkscape.org/namespaces/inkscape"
   height="16"
   id="svg744"
   version="1.0"
   width="16"
   sodipodi:docname="trash2.svg"
   inkscape:version="0.92.4 5da689c313, 2019-01-14">
  <sodipodi:namedview
     pagecolor="#ffffff"
     bordercolor="#666666"
     borderopacity="1"
     objecttolerance="10"
     gridtolerance="10"
     guidetolerance="10"
     inkscape:pageopacity="0"
     inkscape:pageshadow="2"
     inkscape:window-width="1366"
     inkscape:window-height="712"
     id="namedview8"
     showgrid="true"
     inkscape:zoom="90.509668"
     inkscape:cx="3.9007371"
     inkscape:cy="15.102027"
     inkscape:window-x="0"
     inkscape:window-y="26"
     inkscape:window-maximized="1"
     inkscape:current-layer="svg744">
    <inkscape:grid
       type="xygrid"
       id="grid4544" />
  </sodipodi:namedview>
  <metadata
     id="metadata750">
    <rdf:RDF>
      <cc:Work
         rdf:about="">
        <dc:format>image/svg+xml</dc:format>
        <dc:type
           rdf:resource="http://purl.org/dc/dcmitype/StillImage" />
      </cc:Work>
    </rdf:RDF>
  </metadata>
  <defs
     id="defs748">
    <filter
       inkscape:collect="always"
       style="color-interpolation-filters:sRGB"
       id="filter4832">
      <feBlend
         inkscape:collect="always"
         mode="multiply"
         in2="BackgroundImage"
         id="feBlend4834" />
    </filter>
  </defs>
  <path
     style="display:inline;vector-effect:none;fill:#898989;fill-opacity:1;stroke-width:1;stroke-linecap:square;stroke-opacity:0.5;enable-background:new"
     d="m 3.5041203,1.6e-7 h 8.9997587 c 0.830977,0 1.566226,0.67165004 1.49996,1.50000004 L 13.003865,14 c -2.499932,2 -7.4997982,2 -9.9997313,0 L 2.0041605,1.5000002 C 1.9378925,0.6716502 2.6731426,1.6e-7 3.5041203,1.6e-7 Z"
     id="rect1306"
     inkscape:connector-curvature="0"
     sodipodi:nodetypes="sssccss" />
  <path
     inkscape:connector-curvature="0"
     style="display:inline;vector-effect:none;fill:#000000;fill-opacity:0.5;stroke-width:1;stroke-linecap:square;stroke-opacity:0.5;enable-background:new"
     d="m 3.5041203,1.6e-7 c -0.8309777,0 -1.566228,0.67165004 -1.4999598,1.50000004 L 3.0041337,14 c 2.4999331,2 7.4997993,2 9.9997313,0 L 14.003839,1.5000002 C 14.070109,0.6716502 13.334856,1.6e-7 12.503879,1.6e-7 Z m 0,1.00000004 h 8.9997587 c 0.276992,0 0.523986,0.22404 0.499986,0.5 L 12.003892,13 C 9.5039594,15 6.50404,15 4.004107,13 L 3.0041337,1.5000002 c -0.023999,-0.27596 0.222994,-0.5 0.4999866,-0.5 z"
     id="path1315" />
  <g
     id="g1366"
     transform="matrix(0.24999331,0,0,0.25,-56.119284,-55.24457)"
     style="display:inline;stroke-width:2.0000267;stroke-miterlimit:4;stroke-dasharray:none;filter:url(#filter4832);enable-background:new">
    <g
       style="opacity:0.35;stroke-width:4.00005341;stroke-miterlimit:4;stroke-dasharray:none"
       id="g1352"
       transform="translate(3)">
      <path
         sodipodi:nodetypes="cc"
         inkscape:connector-curvature="0"
         id="path1348"
         d="m 267.5,228.97828 -4,44"
         style="fill:none;stroke:#000000;stroke-width:4.00005341;stroke-linecap:butt;stroke-linejoin:miter;stroke-miterlimit:4;stroke-dasharray:none;stroke-opacity:1" />
      <path
         sodipodi:nodetypes="cc"
         inkscape:connector-curvature="0"
         id="path1350"
         d="m 263.5,228.97828 -4,44"
         style="fill:none;stroke:#ffffff;stroke-width:4.00005341;stroke-linecap:butt;stroke-linejoin:miter;stroke-miterlimit:4;stroke-dasharray:none;stroke-opacity:1" />
    </g>
    <g
       style="opacity:0.35;stroke-width:4.00005341;stroke-miterlimit:4;stroke-dasharray:none"
       id="g1358"
       transform="matrix(-1,0,0,1,505,0)">
      <path
         style="fill:none;stroke:#000000;stroke-width:4.00005341;stroke-linecap:butt;stroke-linejoin:miter;stroke-miterlimit:4;stroke-dasharray:none;stroke-opacity:1"
         d="m 262.5,228.97828 -4,44"
         id="path1354"
         inkscape:connector-curvature="0"
         sodipodi:nodetypes="cc" />
      <path
         style="fill:none;stroke:#ffffff;stroke-width:4.00005341;stroke-linecap:butt;stroke-linejoin:miter;stroke-miterlimit:4;stroke-dasharray:none;stroke-opacity:1"
         d="m 258.5,228.97828 -4,44"
         id="path1356"
         inkscape:connector-curvature="0"
         sodipodi:nodetypes="cc" />
    </g>
  </g>
</svg>

<?xml version="1.0" encoding="UTF-8"?>
<svg xmlns="http://www.w3.org/2000/svg" xmlns:xlink="http://www.w3.org/1999/xlink" width="16" height="16" viewBox="0 0 16 16">
<defs>
<image id="source-17" x="0" y="0" width="16" height="16" xlink:href="data:image/png;base64,iVBORw0KGgoAAAANSUhEUgAAABAAAAAQCAYAAAAf8/9hAAAABmJLR0QA/wD/AP+gvaeTAAAA5klEQVQ4jaWTMW7DMAxFvypqC2DYW0fD9/Dm2+QGnXsq7T6B7Ct002ZAliiwU4I4igOh5Sby8+F/EFJ4qGmaWEQ03pRSKltr6famx+E4jtoYA6XUy2URATNra+299/Escs6dLjvnICKH/gEQYwQRFaK7XSLEGP8GEJE6gDEGOecCkHOud3AGMMbUAZi5ADBzfYRnEQCklOodpJQKwG1WBThzUB1h3/cCEEKojxBCeBlBa/0ekHPGsiwYhqEA9H2PdV2LEx8+U9M0V+/91zzPn23b4nK5AAC2bYP3HkT003Xdd0H/T/0Cgl+pUoOJnvUAAAAASUVORK5CYII="/>
</defs>
<path fill-rule="nonzero" fill="rgb(53.725493%, 53.725493%, 53.725493%)" fill-opacity="1" d="M 3.503906 0 L 12.503906 0 C 13.335938 0 14.070312 0.671875 14.003906 1.5 L 13.003906 14 C 10.503906 16 5.503906 16 3.003906 14 L 2.003906 1.5 C 1.9375 0.671875 2.671875 0 3.503906 0 Z M 3.503906 0 "/>
<path fill-rule="nonzero" fill="rgb(0%, 0%, 0%)" fill-opacity="0.501961" d="M 3.503906 0 C 2.671875 0 1.9375 0.671875 2.003906 1.5 L 3.003906 14 C 5.503906 16 10.503906 16 13.003906 14 L 14.003906 1.5 C 14.070312 0.671875 13.335938 0 12.503906 0 Z M 3.503906 1 L 12.503906 1 C 12.78125 1 13.027344 1.222656 13.003906 1.5 L 12.003906 13 C 9.503906 15 6.503906 15 4.003906 13 L 3.003906 1.5 C 2.980469 1.222656 3.226562 1 3.503906 1 Z M 3.503906 1 "/>
<use xlink:href="#source-17"/>
</svg>
